X:1
T:Title
%%score { ( 1 4 ) | ( 2 3 ) }
L:1/8
M:9/8
K:G
V:1 treble nm="Grand Piano"
V:4 treble 
V:2 bass 
V:3 bass 
V:1
 z3 z3[Q:1/4=106] [B,D][CE][B,D] | [DB]3 [B,G]3 [B,G][CA][DB] | [CA]3 [A,CE]3 .[A,^CE]2 [A,CG] | %3
 F2 c E3 F2 E | [B,D]6 [B,D][CE][B,D] | [DB]3 [G,B,G]3 [B,G]AB | [Ec]3 [CE]3 [DF]GE | D2 c B3 A3 | %8
[M:3/4] [B,DG]6 |[M:3/8] z3 |[M:9/8] d3 A3 z3 | z2 G z2 D Bc^c | .F3 A3 z3 | [DFA]6 [B,D]ED | %14
 B3 G3 GAB | [Ec]3 [CE]3 [DF]GE | D2 c B3 A3 |[M:3/4] [B,DG]6 |] %18
V:2
 z3 z3 [G,,G,]2 [G,,G,] | [G,,D,]3 [G,,G,]3 [G,,G,]2 [G,,G,] | [C,E,]3 C,3 z FA,, | z3 z3 .A,3 | %4
 [G,,G,]6 [G,,G,]2 [G,,G,] | z3 z3 .G,3 | [C,G,]3 [C,G,]3 z E[C,G,C] | %7
 [D,G,B,]2 [D,A,D] [D,G,D]3 [D,CD]3 |[M:3/4] G,,6 |[M:3/8][K:treble] Bc^c | %10
[M:9/8][K:bass] [D,A,]2 [D,A,] [D,D]2 [D,D] z3 | [G,DG]2 [G,D] [G,B,D]2 [G,B,] z3 | %12
 [D,A,]2 D, D,2 D, z AA,, | D,6 z C[G,B,] | [G,D]3 [G,B,]3 B,C[G,D] | [C,G,]3 [C,G,]3 z E[C,G,C] | %16
 [D,G,B,]2 [D,G,D] [D,G,D]3 [D,CD]3 |[M:3/4] G,,6 |] %18
V:3
 x9 | x9 | z3 z3 .A,,3 | [D,A,D]2 [D,A,D] [D,F,C]3 [D,C]2- [D,F,C] | x9 | [G,,D,]3 G,,3 z C[G,D] | %6
 z3 z3 .[C,G,]3 | x9 |[M:3/4] x6 |[M:3/8][K:treble] x3 |[M:9/8][K:bass] x9 | x9 | z3 z3 .A,,3 | %13
 z3 z3 .G,3 | z3 z3 .G,3 | z3 z3 .[C,G,]3 | x9 |[M:3/4] x6 |] %18
V:4
 x9 | x9 | x9 | x9 | x9 | x9 | x9 | x9 |[M:3/4] x6 |[M:3/8] x3 |[M:9/8] F2 F F2 F ABc | B3 G3 z3 | %12
 d2- [A,Fd] [DF]2 [DF] .[^CGB]2 [CEG] | x9 | x9 | x9 | x9 |[M:3/4] x6 |] %18

